symbols/web/near_me/materialsymbolsrounded/near_me_wght300gradN25fill1_48px.svg

<svg xmlns="http://www.w3.org/2000/svg" height="48" width="48"><path d="M21.2 26.75 9 21.95q-.4-.1-.625-.45-.225-.35-.225-.8 0-.4.225-.725Q8.6 19.65 9 19.5L37.65 8.7q.35-.15.725-.05.375.1.625.35.25.25.35.6.1.35-.05.75l-10.9 28.6q-.15.45-.5.65t-.75.2q-.4 0-.75-.2t-.4-.65Z"/></svg>

<svg xmlns="http://www.w3.org/2000/svg" height="48" width="48"><path d="M21.2 26.75 9 21.95Q8.6 21.85 8.375 21.5Q8.15 21.15 8.15 20.7Q8.15 20.3 8.375 19.975Q8.6 19.65 9 19.5L37.65 8.7Q38 8.55 38.375 8.65Q38.75 8.75 39 9Q39.25 9.25 39.35 9.6Q39.45 9.95 39.3 10.35L28.4 38.95Q28.25 39.4 27.9 39.6Q27.55 39.8 27.15 39.8Q26.75 39.8 26.4 39.6Q26.05 39.4 26 38.95Z"/></svg>
